X: 21268
T: Keeper Of The Treasure
R: polka
M: 2/4
K: Bminor
|:BF BF|B/c/d/c/ BF|B>c de|fe de|
fg/f/ ed|cB A>B|Ac Bd|1 ce BA:|2 ca/f/ ec||
|:Bb af|ge ec|d>f ed|cA AF|
E/F/G/B/ ed|cA B/c/d/e/|fe dc|1 AB Bc:|2 f/g/f/e/ dc||

